X:1
T:The Cuckoo's Nest
M:4/4
L:1/8
K:G
 GA| BG EG BG EG| BA GF E2 FG| AF DF AF DF| AG FE D2| GA| G3 E g2 fe|\
 dB GB d2 cB| AG FE DE FA| GE ED E2| GA| Be ed ef ge| dB BA B3 d| AB de fa ef|\
 d2 A2 A2| dc| Be ed ef ge| dB GB d2 cB| AG FE DE FA| GE ED| E4||

